public/icon/task.svg

<svg width="29" height="31" viewBox="0 0 29 31" fill="none" xmlns="http://www.w3.org/2000/svg">
<path d="M17.8918 11.636H7.72949V12.3619H17.8918V11.636Z" fill="url(#paint0_linear_104_2287)"/>
<path d="M5.62529 12.7259C6.02619 12.7259 6.35117 12.4007 6.35117 11.9994C6.35117 11.5982 6.02619 11.2729 5.62529 11.2729C5.2244 11.2729 4.89941 11.5982 4.89941 11.9994C4.89941 12.4007 5.2244 12.7259 5.62529 12.7259Z" fill="url(#paint1_linear_104_2287)"/>
<path d="M17.8918 15.2686H7.72949V15.9944H17.8918V15.2686Z" fill="url(#paint2_linear_104_2287)"/>
<path d="M5.62529 16.3582C6.02619 16.3582 6.35117 16.033 6.35117 15.6318C6.35117 15.2305 6.02619 14.9053 5.62529 14.9053C5.2244 14.9053 4.89941 15.2305 4.89941 15.6318C4.89941 16.033 5.2244 16.3582 5.62529 16.3582Z" fill="url(#paint3_linear_104_2287)"/>
<path d="M5.62529 19.9906C6.02619 19.9906 6.35117 19.6653 6.35117 19.2641C6.35117 18.8629 6.02619 18.5376 5.62529 18.5376C5.2244 18.5376 4.89941 18.8629 4.89941 19.2641C4.89941 19.6653 5.2244 19.9906 5.62529 19.9906Z" fill="url(#paint4_linear_104_2287)"/>
<path d="M13.5365 22.5334H7.72949V23.2593H13.5365V22.5334Z" fill="url(#paint5_linear_104_2287)"/>
<path d="M5.62529 23.6231C6.02619 23.6231 6.35117 23.2979 6.35117 22.8967C6.35117 22.4954 6.02619 22.1702 5.62529 22.1702C5.2244 22.1702 4.89941 22.4954 4.89941 22.8967C4.89941 23.2979 5.2244 23.6231 5.62529 23.6231Z" fill="url(#paint6_linear_104_2287)"/>
<path d="M28.706 9.85946L27.6796 8.8322L27.0379 9.47442L26.7813 9.21761L25.7814 10.1806L22.2471 13.6811V7.6404C22.2471 5.23682 20.3674 3.28148 17.9659 3.28148H17.5289V2.91823C17.5289 2.51866 17.2763 2.19174 16.8771 2.19174H12.8847C12.8847 1.38934 12.2347 0.73877 11.4329 0.73877C10.6312 0.73877 9.98119 1.38934 9.98119 2.19174H5.98885C5.58961 2.19174 5.18893 2.51866 5.18893 2.91823V3.28148H4.90003C2.49845 3.28148 0.470703 5.23682 0.470703 7.6404V25.8026C0.470703 28.2062 2.49845 30.1615 4.90003 30.1615H17.9659C20.3674 30.1615 22.2471 28.2062 22.2471 25.8026V16.7629L27.0009 11.9993H27.0194L28.3122 10.7367L28.06 10.4904L28.706 9.85946ZM11.4329 1.46526C11.8336 1.46526 12.1588 1.79072 12.1588 2.19174C12.1588 2.59277 11.8336 2.91823 11.4329 2.91823C11.0323 2.91823 10.7071 2.59277 10.7071 2.19174C10.7071 1.79072 11.0323 1.46526 11.4329 1.46526ZM20.7954 25.8026C20.7954 27.4049 19.5668 28.7085 17.9659 28.7085H4.90003C3.2991 28.7085 1.92246 27.4049 1.92246 25.8026V7.6404C1.92246 6.03813 3.2991 4.73445 4.90003 4.73445H5.26297L4.90003 6.18743C4.90003 6.58699 5.22667 6.91391 5.62591 6.91391H17.24C17.6392 6.91391 17.9659 6.58699 17.9659 6.18743L17.6029 4.73445H17.9659C19.5668 4.73445 20.7954 6.03813 20.7954 7.6404V15.1341L17.1061 18.901H7.72951V19.6274H16.3802L15.5534 20.4549L14.9117 21.8676H14.9114L14.2697 23.2806L17.056 21.9958L20.7954 18.2159V25.8026ZM16.5246 21.9409L15.4663 22.4226L15.1266 22.083L15.6079 21.0234L16.4513 21.8672L16.5246 21.9409ZM27.1018 11.4646L26.0754 10.4374L26.7265 9.78608L26.6532 9.85946L27.6792 10.8863L27.8077 10.7578L27.8081 10.7581L27.1018 11.4646Z" fill="url(#paint7_linear_104_2287)"/>
<defs>
<linearGradient id="paint0_linear_104_2287" x1="7.72949" y1="11.9989" x2="17.8918" y2="11.9989" gradientUnits="userSpaceOnUse">
<stop stop-color="#3068D0"/>
<stop offset="0.5" stop-color="#836BAF"/>
<stop offset="1" stop-color="#978262"/>
</linearGradient>
<linearGradient id="paint1_linear_104_2287" x1="4.89941" y1="11.9994" x2="6.35117" y2="11.9994" gradientUnits="userSpaceOnUse">
<stop stop-color="#3068D0"/>
<stop offset="0.5" stop-color="#836BAF"/>
<stop offset="1" stop-color="#978262"/>
</linearGradient>
<linearGradient id="paint2_linear_104_2287" x1="7.72949" y1="15.6315" x2="17.8918" y2="15.6315" gradientUnits="userSpaceOnUse">
<stop stop-color="#3068D0"/>
<stop offset="0.5" stop-color="#836BAF"/>
<stop offset="1" stop-color="#978262"/>
</linearGradient>
<linearGradient id="paint3_linear_104_2287" x1="4.89941" y1="15.6318" x2="6.35117" y2="15.6318" gradientUnits="userSpaceOnUse">
<stop stop-color="#3068D0"/>
<stop offset="0.5" stop-color="#836BAF"/>
<stop offset="1" stop-color="#978262"/>
</linearGradient>
<linearGradient id="paint4_linear_104_2287" x1="4.89941" y1="19.2641" x2="6.35117" y2="19.2641" gradientUnits="userSpaceOnUse">
<stop stop-color="#3068D0"/>
<stop offset="0.5" stop-color="#836BAF"/>
<stop offset="1" stop-color="#978262"/>
</linearGradient>
<linearGradient id="paint5_linear_104_2287" x1="7.72949" y1="22.8964" x2="13.5365" y2="22.8964" gradientUnits="userSpaceOnUse">
<stop stop-color="#3068D0"/>
<stop offset="0.5" stop-color="#836BAF"/>
<stop offset="1" stop-color="#978262"/>
</linearGradient>
<linearGradient id="paint6_linear_104_2287" x1="4.89941" y1="22.8967" x2="6.35117" y2="22.8967" gradientUnits="userSpaceOnUse">
<stop stop-color="#3068D0"/>
<stop offset="0.5" stop-color="#836BAF"/>
<stop offset="1" stop-color="#978262"/>
</linearGradient>
<linearGradient id="paint7_linear_104_2287" x1="0.470703" y1="15.4501" x2="28.706" y2="15.4501" gradientUnits="userSpaceOnUse">
<stop stop-color="#3068D0"/>
<stop offset="0.5" stop-color="#836BAF"/>
<stop offset="1" stop-color="#978262"/>
</linearGradient>
</defs>
</svg>

<svg width="29" height="31" fill="none" xmlns="http://www.w3.org/2000/svg"><path d="M17.892 11.636H7.729v.726h10.163v-.726Z" fill="url(#a)"/><path d="M5.625 12.726a.726.726 0 1 0 0-1.452.726.726 0 0 0 0 1.452Z" fill="url(#b)"/><path d="M17.892 15.269H7.729v.725h10.163v-.725Z" fill="url(#c)"/><path d="M5.625 16.358a.726.726 0 1 0 0-1.452.726.726 0 0 0 0 1.452Z" fill="url(#d)"/><path d="M5.625 19.99a.726.726 0 1 0 0-1.452.726.726 0 0 0 0 1.453Z" fill="url(#e)"/><path d="M13.537 22.533H7.729v.726h5.808v-.726Z" fill="url(#f)"/><path d="M5.625 23.623a.726.726 0 1 0 0-1.452.726.726 0 0 0 0 1.452Z" fill="url(#g)"/><path d="M28.706 9.86 27.68 8.831l-.642.642-.257-.256-1 .963-3.534 3.5v-6.04c0-2.404-1.88-4.36-4.281-4.36h-.437v-.363c0-.4-.253-.726-.652-.726h-3.992a1.452 1.452 0 1 0-2.904 0H5.99c-.4 0-.8.327-.8.726v.363H4.9c-2.402 0-4.43 1.956-4.43 4.36v18.162c0 2.403 2.028 4.358 4.43 4.358h13.066c2.401 0 4.281-1.955 4.281-4.358v-9.04l4.754-4.764h.018l1.293-1.262-.252-.247.646-.63ZM11.433 1.464a.726.726 0 1 1-.001 1.453.726.726 0 0 1 0-1.453Zm9.362 24.338c0 1.602-1.228 2.905-2.83 2.905H4.9c-1.6 0-2.978-1.303-2.978-2.905V7.64c0-1.602 1.377-2.906 2.978-2.906h.363L4.9 6.187c0 .4.327.727.726.727H17.24c.4 0 .726-.327.726-.727l-.363-1.453h.363c1.6 0 2.83 1.304 2.83 2.906v7.494l-3.69 3.767H7.73v.726h8.65l-.827.828-.641 1.413-.642 1.413 2.786-1.285 3.74-3.78v7.587Zm-4.27-3.862-1.059.482-.34-.34.482-1.06.843.844.074.074Zm10.577-10.476-1.027-1.028.652-.65-.074.072 1.026 1.027.129-.128-.706.707Z" fill="url(#h)"/><defs><linearGradient id="a" x1="7.729" y1="11.999" x2="17.892" y2="11.999" gradientUnits="userSpaceOnUse"><stop stop-color="#3068D0"/><stop offset=".5" stop-color="#836BAF"/><stop offset="1" stop-color="#978262"/></linearGradient><linearGradient id="b" x1="4.899" y1="11.999" x2="6.351" y2="11.999" gradientUnits="userSpaceOnUse"><stop stop-color="#3068D0"/><stop offset=".5" stop-color="#836BAF"/><stop offset="1" stop-color="#978262"/></linearGradient><linearGradient id="c" x1="7.729" y1="15.632" x2="17.892" y2="15.632" gradientUnits="userSpaceOnUse"><stop stop-color="#3068D0"/><stop offset=".5" stop-color="#836BAF"/><stop offset="1" stop-color="#978262"/></linearGradient><linearGradient id="d" x1="4.899" y1="15.632" x2="6.351" y2="15.632" gradientUnits="userSpaceOnUse"><stop stop-color="#3068D0"/><stop offset=".5" stop-color="#836BAF"/><stop offset="1" stop-color="#978262"/></linearGradient><linearGradient id="e" x1="4.899" y1="19.264" x2="6.351" y2="19.264" gradientUnits="userSpaceOnUse"><stop stop-color="#3068D0"/><stop offset=".5" stop-color="#836BAF"/><stop offset="1" stop-color="#978262"/></linearGradient><linearGradient id="f" x1="7.729" y1="22.896" x2="13.537" y2="22.896" gradientUnits="userSpaceOnUse"><stop stop-color="#3068D0"/><stop offset=".5" stop-color="#836BAF"/><stop offset="1" stop-color="#978262"/></linearGradient><linearGradient id="g" x1="4.899" y1="22.897" x2="6.351" y2="22.897" gradientUnits="userSpaceOnUse"><stop stop-color="#3068D0"/><stop offset=".5" stop-color="#836BAF"/><stop offset="1" stop-color="#978262"/></linearGradient><linearGradient id="h" x1=".471" y1="15.45" x2="28.706" y2="15.45" gradientUnits="userSpaceOnUse"><stop stop-color="#3068D0"/><stop offset=".5" stop-color="#836BAF"/><stop offset="1" stop-color="#978262"/></linearGradient></defs></svg>
